outputs/icons/social/partner_round.svg

<svg xmlns="http://www.w3.org/2000/svg" width="1200" height="1200" fill="none"><path fill="#000" d="M642.465 696.335 589.29 724.09c-54.64 29.155-123.829 15.28-164.194-33.09l-26.154-31.36c-22.15-26.69-20.349-65.32 4.204-89.805l162.929-162.926-32.095-18.882a33.64 33.64 0 0 0-16.945-4.604H395.873l17.547-35.094c8.274-16.48 1.535-36.495-14.944-44.768l-100.079-50.039c-16.413-8.207-36.428-1.535-44.702 14.944L53.538 668.78c-8.272 16.48-1.534 36.495 14.946 44.77l100.078 50.04c4.737 2.4 9.808 3.465 14.879 3.465a33.5 33.5 0 0 0 29.89-18.41l11.342-22.62L483.342 917.31C512.9 939.125 548.125 950 583.285 950c35.765 0 71.39-11.275 100.945-33.76l116.095-89.135z"/><path fill="#000" d="M1113.97 668.78 913.815 268.466c-8.275-16.546-28.225-23.151-44.77-14.944l-100.08 50.038c-16.48 8.274-23.15 28.289-14.945 44.769l17.615 35.094H683.9L450.317 616.94l26.088 31.355c20.148 24.155 54.51 31.225 81.795 16.75l92.81-48.375 203.825 168.87 85.13-65.655 14.345 28.69c5.875 11.675 17.68 18.415 29.825 18.415 5.005 0 10.075-1.135 14.945-3.535l100.08-50.04c16.41-8.14 23.015-28.155 14.81-44.635"/></svg>

<svg width="1200" height="1200" viewBox="0 0 1200 1200" fill="none" xmlns="http://www.w3.org/2000/svg"><path d="M642.465 696.335L589.29 724.09C534.65 753.245 465.461 739.37 425.096 691L398.942 659.64C376.792 632.95 378.593 594.32 403.146 569.835L566.075 406.909L533.98 388.027C528.845 385.024 522.975 383.423 517.035 383.423H395.873L413.42 348.329C421.694 331.849 414.955 311.834 398.476 303.561L298.397 253.522C281.984 245.315 261.969 251.987 253.695 268.466L53.538 668.78C45.266 685.26 52.004 705.275 68.484 713.55L168.562 763.59C173.299 765.99 178.37 767.055 183.441 767.055C195.716 767.055 207.459 760.25 213.331 748.645L224.673 726.025L483.342 917.31C512.9 939.125 548.125 950 583.285 950C619.05 950 654.675 938.725 684.23 916.24L800.325 827.105L642.465 696.335Z" fill="black"/><path d="M1113.97 668.78L913.815 268.466C905.54 251.92 885.59 245.315 869.045 253.522L768.965 303.56C752.485 311.834 745.815 331.849 754.02 348.329L771.635 383.423H683.9L450.317 616.94L476.405 648.295C496.553 672.45 530.915 679.52 558.2 665.045L651.01 616.67L854.835 785.54L939.965 719.885L954.31 748.575C960.185 760.25 971.99 766.99 984.135 766.99C989.14 766.99 994.21 765.855 999.08 763.455L1099.16 713.415C1115.57 705.275 1122.175 685.26 1113.97 668.78Z" fill="black"/></svg>
